X:1
T:2025-02-21
T:Mucky Ducky, Seal at Topsham
M:3/2
L:1/8
K:G
%% Consider whether the patter of the first three bars
%% should be applied consistently across the tune.
%% Worked nicely with d or e single drone - 
%% switches between majory and minory from bar to bar and works
%% nicely with either.
GABc d2 | G2 F2 G2 | EG D2 GA | 
GABc d2 | g2 f2 g2 | ag f2 AB |
agfe d2 | A2 c2 E2 | AB c2 F2 |
ABcd e2 | E2 A2 c2 | BA G2 FG |
["Non Final times" ABcd e2 | a2 f2 d2 | gfed c2 | c2 B2 A2 :|
["Last time"gfed A2 | c2 B2 F2 | G4 ed :|

